src/assets/send.svg

<svg fill="none" height="18" viewBox="0 0 18 18" width="18" xmlns="http://www.w3.org/2000/svg"><path clip-rule="evenodd" d="m16.3452 3.38244-13.92013 4.54395 3.39699 2.03147c.22643.13544.36506.37984.36506.64364v2.2764l2.29965-.9327c.21123-.0857.44995-.0706.64876.0409l5.20757 2.9206zm.3386-1.37286c.5375-.17545 1.0685.28431.9717.84135l-2.239 12.88767c-.0885.5098-.6545.7789-1.1058.5258l-5.57344-3.1259-2.71825 1.1025c-.49312.2-1.03189-.1628-1.03189-.695v-2.6892l-4.026213-2.4078c-.552253-.33026-.45952-1.15698.152193-1.35666zm-2.5037 3.64624c.2173.25016.1907.62912-.0595.84644l-4.23454 3.67844c-.25016.2173-.62912.1907-.84644-.0594-.21731-.25021-.19068-.62917.05948-.84648l4.2345-3.67848c.2502-.21732.6292-.19069.8465.05948z" fill="#fff" fill-rule="evenodd"/></svg>

<svg width="18" height="18" viewBox="0 0 18 18" fill="none" xmlns="http://www.w3.org/2000/svg">
<path fill-rule="evenodd" clip-rule="evenodd" d="M16.3452 3.38244L2.42507 7.92639L5.82206 9.95786C6.04849 10.0933 6.18712 10.3377 6.18712 10.6015V12.8779L8.48677 11.9452C8.698 11.8595 8.93672 11.8746 9.13553 11.9861L14.3431 14.9067L16.3452 3.38244ZM16.6838 2.00958C17.2213 1.83413 17.7523 2.29389 17.6555 2.85093L15.4165 15.7386C15.328 16.2484 14.762 16.5175 14.3107 16.2644L8.73726 13.1385L6.01901 14.241C5.52589 14.441 4.98712 14.0782 4.98712 13.546V10.8568L0.960907 8.449C0.408654 8.11874 0.501387 7.29202 1.1131 7.09234L16.6838 2.00958ZM14.1801 5.65582C14.3974 5.90598 14.3708 6.28494 14.1206 6.50226L9.88606 10.1807C9.6359 10.398 9.25694 10.3714 9.03962 10.1213C8.82231 9.87109 8.84894 9.49213 9.0991 9.27482L13.3336 5.59634C13.5838 5.37902 13.9628 5.40565 14.1801 5.65582Z" fill="white"/>
</svg>
